X: 232
T: 233. Werde munter, mein Gem\"ute
N: Derived from chor233.krn
C: Johann Sebastian Bach
%%abc-version 2.0
%%abcx-abcm2ps-target-version 5.9.1 (29 Sep 2008)
%%abc-creator hum2abc beta
%%abcx-conversion-date 2019/03/11 17:28:19
%%abc-edited-by Craig Stuart Sapp
%%humdrum-veritas 2198379704
%%humdrum-veritas-data 108740995
%%
%%barnumbers 0
L: 1/4
M: C
%%staves [1 2 3 4]
V: 1 clef=treble
V: 2 clef=treble
V: 3 clef=treble-8
V: 4 clef=bass
K: A
[V:1] cdee | 
[V:2] AAGA | 
[V:3] efe/d/c | 
[V:4] A,F,C,F, | 
[V:1] dcB!fermata!B | 
[V:2] A/G/AG!fermata!G | 
[V:3] dee!fermata!e | 
[V:4] B,,C,/D,/E,!fermata!E, | 
[V:1] cdec | 
[V:2] AABA | 
[V:3] efBc/d/ | 
[V:4] A,/G,/F,G,A, | 
[V:1] BB!fermata!A2 :|]  
[V:2] AG!fermata!E2 :|]  
[V:3] e/B/ e/d/!fermata!c2 :|]  
[V:4] E,E,!fermata!A,,2 :|]  
[V:1] Bcdd | 
[V:2] G^ABB | 
[V:3] eeff | 
[V:4] E,D,/C,/ B,,/C,/ D,/E,/ | 
[V:1] cc!fermata!B2 | 
[V:2] B^A!fermata!F2 | 
[V:3] f/c/ f/e/!fermata!d2 | 
[V:4] F,F,!fermata!B,,2 | 
[V:1] deff | 
[V:2] FAAA | 
[V:3] dcdd | 
[V:4] B,A,/=G,/ F,/E,/D, | 
[V:1] ee!fermata!d2 | 
[V:2] A/E/ A/=G/!fermata!F2 | 
[V:3] dc!fermata!A2 | 
[V:4] A,A,,!fermata!D,2 | 
[V:1] cdee | 
[V:2] EAE/F/^G | 
[V:3] A/B/cBe | 
[V:4] A,/^G,/F,G,C | 
[V:1] dcB!fermata!B | 
[V:2] AAG!fermata!G | 
[V:3] fee!fermata!e | 
[V:4] F,/G,/A,E,!fermata!E, | 
[V:1] cde/d/c | 
[V:2] AAA/G/A | 
[V:3] efee | 
[V:4] A,/F,/ E,/D,/ C,/B,,/A,, | 
[V:1] BB!fermata!A2 |]  
[V:2] AG!fermata!E2 |]  
[V:3] e/B/ e/d/!fermata!c2 |]  
[V:4] E,E,!fermata!A,,2 |]  



